src/components/Icon/assets/profile.svg

<svg width="24" height="24" viewBox="0 0 24 24" fill="none" xmlns="http://www.w3.org/2000/svg">
<path fill-rule="evenodd" clip-rule="evenodd" d="M4 17V7H20V17H4ZM3.5 5H20.5C21.327 5 22 5.673 22 6.5V17.5C22 18.327 21.327 19 20.5 19H3.5C2.673 19 2 18.327 2 17.5V6.5C2 5.673 2.673 5 3.5 5ZM10.0002 11.0001C10.0002 12.1041 9.1042 13.0001 8.0002 13.0001C6.8962 13.0001 6.0002 12.1041 6.0002 11.0001C6.0002 9.89609 6.8962 9.00009 8.0002 9.00009C9.1042 9.00009 10.0002 9.89609 10.0002 11.0001ZM12 11H18V9H12V11ZM18 15H12V13H18V15Z" fill="#65676A"/>
</svg>

<svg xmlns="http://www.w3.org/2000/svg" width="24" height="24" viewBox="0 0 24 24">
    <path fill="#65676A" fill-rule="evenodd" d="M20.5 5c.827 0 1.5.673 1.5 1.5v11c0 .827-.673 1.5-1.5 1.5h-17c-.827 0-1.5-.673-1.5-1.5v-11C2 5.673 2.673 5 3.5 5zM20 7H4v10h16V7zm-2 6v2h-6v-2h6zM8 9c1.104 0 2 .896 2 2s-.896 2-2 2-2-.896-2-2 .896-2 2-2zm10 0v2h-6V9h6z"/>
</svg>
